X: 21
T:Lament of the Aran Fisherman
M:3/4
L:1/8
S:Seamus Moriarty, San Francisco
R:Air
K:G
"Andante con Expression"GA|B2 e2 (3fe^d|e E3 GA|B3 {cB}A AG|G4 Bc|
d2 Bd ef|g2|fe f>^d|e2 =dB A>G|E4||
Bc|d2 Bd ef|g2 fe f>^d|e>=d BA BG|E4 (3EGA|
B2 e2 f^d|e E3 GA|B2 {cB}AG A>G|G4||
%
% Mr. Francis E. Walsh of San Francisco noted this air
% from the singing of Seamus Moriarty, a native of Kerry.
% The verses bewailed the drowning of a fisherman.

